X: 1
T:CALL AND ANSWER
M:4/4
L:1/4
Q:80
K:D
z2z/FG/-|G/A2D3/2-|D/D/E/FE3/2-|E/F2zB/|
BB/A2D/-|D/D/E/FE3/2-|E3/2zFG/-|G/A3/2D2|
D/E/FE3/2F/-|F3B|B/A3/2D/E/F|FED2|
z4|E3/2F3/2G/F/-|F2z/B3/2|B3/2A/AF-|F2z/B3/2|
BA/A3/2D/D/|E/FE/-E2-|E3/2zFG/|A3/2D3/2D/E/|
FE2F-|F2z/B/B|B/A2-A/D|E/FG/F2-|
F3/2z/B/BB/|A2-A3/2/2 D3/2/2 E/|FE/D/-D2
